X:346
T:James' Reel,aka. JaW.346
T:Reel. JaW.346
M:C
L:1/8
Q:1/2=3D100
C:Titled only "Reel" in MS
S:James Winder Ms, Lancashire, 1835-41
R:.Reel
O:England
A:Wyresdale,Lancashire
Z:vmp.Chris Partington, Aug 2004
K:G
D2DD D2dc|BdAB GEEE|D2DD D2dc|BdAB G2G2:|!
|:BddB ceeg|dBAG FAA2|BddB ceef|gfed e2e2|!
BddB ceeg|dBAG GFED|D2DD D2dc|BdAB G2G2:|]
